src/symbolic/status/microphone-sensitivity-muted-symbolic.svg

<svg xmlns="http://www.w3.org/2000/svg" width="16" height="16" version="1.1">
 <path style="fill:#444444" d="M 8,0 C 6.6398,0 5.5123,0.90584 5.1445,2.1445 L 11,8 V 3 C 11,1.34 9.66,0 8,0 Z M 5,5.5 V 8 C 5,9.66 6.34,11 8,11 8.7017,11 9.3393,10.751 9.8496,10.35 Z M 2,7 V 8 C 2,10.97 4.16,13.43 7,13.91 V 16 H 9 V 13.91 C 10.134,13.719 11.15,13.202 11.973,12.473 L 10.562,11.062 C 9.8702,11.642 8.9855,12 8,12 5.77,12 4,10.23 4,8 V 7 Z M 12,7 V 8 C 12,8.3068 11.949,8.5971 11.881,8.8809 L 13.449,10.449 C 13.792,9.7002 14,8.8778 14,8 V 7 Z"/>
 <path style="fill:#444444" d="M 2.5,1 15,13.5 13.5,15 1,2.5 Z"/>
 <path style="fill:#444444" d="M 2.5,1 15,13.5 13.5,15 1,2.5 Z"/>
</svg>

<svg xmlns="http://www.w3.org/2000/svg" width="16" height="16"><path d="M8 0C6.64 0 5.512.906 5.144 2.144L11 8V3c0-1.66-1.34-3-3-3zM5 5.5V8c0 1.66 1.34 3 3 3 .702 0 1.34-.249 1.85-.65zM2 7v1c0 2.97 2.16 5.43 5 5.91V16h2v-2.09a5.98 5.98 0 0 0 2.973-1.437l-1.411-1.411A3.963 3.963 0 0 1 8 12c-2.23 0-4-1.77-4-4V7zm10 0v1c0 .307-.051.597-.119.88l1.568 1.569A5.854 5.854 0 0 0 14 8V7z" fill="#444"/><path d="M2.5 1L15 13.5 13.5 15 1 2.5z" fill="#444"/><path d="M2.5 1L15 13.5 13.5 15 1 2.5z" fill="#444"/></svg>
